X: 22
T:SCOTTISH A KERBOEUF
M:4/4
L:1/8
Q:1/4=80
K:C
|:Gcee d/2e/2f/2e/2d2|G/2A/2B/2c/2d/2c/2B/2A/2|1G/2B/2c/2d/2ec:|2Gec2|!
|:GA/2B/2cc AB/2c/2d2|G/2A/2B/2c/2d/2c/2B/2A/2|1G/2B/2c/2d/2ec:|2Gec2|
